X: 25284
T: Man Of The House, The
R: reel
M: 4/4
K: Edorian
|:E2 BE GABG|E/E/E BG FDAF|E2 BE GABe|1 dBAF BAGF:|2 dBAF BEEB||
efge fgaf|gfed edBd|ef g/f/e fgaf|gfed Beed|
efge fgaf|gfed efga|bg a/g/f gfed|edBA GEFD||
efge fgaf|gfed ed B/c/d|efge fgaf|gfed Be e/e/e|
efge fa{b}af|gfed ef g/g/a|bg{a}gf gfed|B/c/d BA GEFD||

